src/images/svg/excel.svg

<?xml version="1.0" encoding="UTF-8"?>
<svg width="30px" height="32px" viewBox="0 0 30 32" version="1.1" xmlns="http://www.w3.org/2000/svg" xmlns:xlink="http://www.w3.org/1999/xlink">
    <title>icons/document/excel</title>
    <g id="Regulatory-information" stroke="none" stroke-width="1" fill="none" fill-rule="evenodd">
        <g id="Regulatory-information----RTS" transform="translate(-757.000000, -819.000000)">
            <g id="Deriv-Investment-Europe-Limited" transform="translate(324.000000, 522.000000)">
                <g id="Documents" transform="translate(24.000000, 297.000000)">
                    <g id="icons/document/excel" transform="translate(408.000000, 0.000000)">
                        <g id="document/excel" transform="translate(1.000000, 0.000000)">
                            <path d="M4,1 L4,31 C4,31.5522847 4.44771525,32 5,32 L29,32 C29.5522847,32 30,31.5522847 30,31 L30,7.91421356 C30,7.64899707 29.8946432,7.39464316 29.7071068,7.20710678 L22.7928932,0.292893219 C22.6053568,0.10535684 22.3510029,7.55485692e-15 22.0857864,0 L5,0 C4.44771525,1.01453063e-16 4,0.44771525 4,1 Z" id="Path-2" fill="#85ACB0" fill-rule="nonzero"></path>
                            <path d="M26,25 C26.5522847,25 27,25.4477153 27,26 C27,26.5522847 26.5522847,27 26,27 L9,27 C8.44771525,27 8,26.5522847 8,26 C8,25.4477153 8.44771525,25 9,25 L26,25 Z M26,19 C26.5522847,19 27,19.4477153 27,20 C27,20.5522847 26.5522847,21 26,21 L9,21 C8.44771525,21 8,20.5522847 8,20 C8,19.4477153 8.44771525,19 9,19 L26,19 Z M26,13 C26.5522847,13 27,13.4477153 27,14 C27,14.5522847 26.5522847,15 26,15 L9,15 C8.44771525,15 8,14.5522847 8,14 C8,13.4477153 8.44771525,13 9,13 L26,13 Z M22,7 C22.5522847,7 23,7.44771525 23,8 C23,8.55228475 22.5522847,9 22,9 L9,9 C8.44771525,9 8,8.55228475 8,8 C8,7.44771525 8.44771525,7 9,7 L22,7 Z" id="Combined-Shape" fill-opacity="0.56" fill="#FFFFFF"></path>
                            <rect id="Box" fill="#333333" x="0" y="16" width="24" height="11" rx="1"></rect>
                            <path d="M4,24.68 L5.336,22.456 L5.36,22.456 L6.712,24.68 L7.776,24.68 L5.944,21.816 L7.704,19.096 L6.704,19.096 L5.416,21.176 L5.4,21.176 L4.128,19.096 L3.064,19.096 L4.808,21.824 L3,24.68 L4,24.68 Z M11.808,24.68 L11.808,23.88 L9.536,23.88 L9.536,19.096 L8.632,19.096 L8.632,24.68 L11.808,24.68 Z M14.408,24.776 C14.728,24.776 15.0133333,24.7346667 15.264,24.652 C15.5146667,24.5693333 15.7266667,24.452 15.9,24.3 C16.0733333,24.148 16.2053333,23.9653333 16.296,23.752 C16.3866667,23.5386667 16.432,23.3013333 16.432,23.04 C16.432,22.592 16.3026667,22.24 16.044,21.984 C15.7853333,21.728 15.376,21.5466667 14.816,21.44 L14.816,21.44 L14.32,21.336 C14.016,21.2773333 13.792,21.1906667 13.648,21.076 C13.504,20.9613333 13.432,20.7866667 13.432,20.552 C13.432,20.3066667 13.52,20.12 13.696,19.992 C13.872,19.864 14.12,19.8 14.44,19.8 C14.7493333,19.8 15.008,19.856 15.216,19.968 C15.424,20.08 15.6,20.2293333 15.744,20.416 L15.744,20.416 L16.376,19.856 C16.1573333,19.5786667 15.8933333,19.3666667 15.584,19.22 C15.2746667,19.0733333 14.9093333,19 14.488,19 C14.1893333,19 13.92,19.0373333 13.68,19.112 C13.44,19.1866667 13.236,19.292 13.068,19.428 C12.9,19.564 12.7693333,19.732 12.676,19.932 C12.5826667,20.132 12.536,20.3546667 12.536,20.6 C12.536,21.048 12.672,21.4 12.944,21.656 C13.216,21.912 13.624,22.0906667 14.168,22.192 L14.168,22.192 L14.664,22.28 C14.9893333,22.344 15.216,22.44 15.344,22.568 C15.472,22.696 15.536,22.8693333 15.536,23.088 C15.536,23.36 15.4453333,23.576 15.264,23.736 C15.0826667,23.896 14.8133333,23.976 14.456,23.976 C14.152,23.976 13.8813333,23.9146667 13.644,23.792 C13.4066667,23.6693333 13.1893333,23.488 12.992,23.248 L12.992,23.248 L12.368,23.832 C12.6026667,24.12 12.884,24.3493333 13.212,24.52 C13.54,24.6906667 13.9386667,24.776 14.408,24.776 Z M18,24.68 L19.336,22.456 L19.36,22.456 L20.712,24.68 L21.776,24.68 L19.944,21.816 L21.704,19.096 L20.704,19.096 L19.416,21.176 L19.4,21.176 L18.128,19.096 L17.064,19.096 L18.808,21.824 L17,24.68 L18,24.68 Z" id="XLSX" fill="#FFFFFF" fill-rule="nonzero"></path>
                        </g>
                    </g>
                </g>
            </g>
        </g>
    </g>
</svg>

<svg width="30" height="32" xmlns="http://www.w3.org/2000/svg"><g fill="none" fill-rule="evenodd"><path d="M4 1v30a1 1 0 001 1h24a1 1 0 001-1V7.914a1 1 0 00-.293-.707L22.793.293A1 1 0 0022.086 0H5a1 1 0 00-1 1z" fill="#85ACB0" fill-rule="nonzero"/><path d="M26 25a1 1 0 010 2H9a1 1 0 010-2h17zm0-6a1 1 0 010 2H9a1 1 0 010-2h17zm0-6a1 1 0 010 2H9a1 1 0 010-2h17zm-4-6a1 1 0 010 2H9a1 1 0 110-2h13z" fill-opacity=".56" fill="#FFF"/><rect fill="#333" y="16" width="24" height="11" rx="1"/><path d="M4 24.68l1.336-2.224h.024l1.352 2.224h1.064l-1.832-2.864 1.76-2.72h-1l-1.288 2.08H5.4l-1.272-2.08H3.064l1.744 2.728L3 24.68h1zm7.808 0v-.8H9.536v-4.784h-.904v5.584h3.176zm2.6.096c.32 0 .605-.041.856-.124.25-.083.463-.2.636-.352a1.5 1.5 0 00.396-.548c.09-.213.136-.45.136-.712 0-.448-.13-.8-.388-1.056-.259-.256-.668-.437-1.228-.544l-.496-.104c-.304-.059-.528-.145-.672-.26-.144-.115-.216-.29-.216-.524 0-.245.088-.432.264-.56.176-.128.424-.192.744-.192.31 0 .568.056.776.168.208.112.384.261.528.448l.632-.56a2.197 2.197 0 00-.792-.636c-.31-.147-.675-.22-1.096-.22-.299 0-.568.037-.808.112a1.82 1.82 0 00-.612.316 1.402 1.402 0 00-.392.504c-.093.2-.14.423-.14.668 0 .448.136.8.408 1.056.272.256.68.435 1.224.536l.496.088c.325.064.552.16.68.288.128.128.192.301.192.52 0 .272-.09.488-.272.648-.181.16-.45.24-.808.24-.304 0-.575-.061-.812-.184a2.096 2.096 0 01-.652-.544l-.624.584c.235.288.516.517.844.688.328.17.727.256 1.196.256zM18 24.68l1.336-2.224h.024l1.352 2.224h1.064l-1.832-2.864 1.76-2.72h-1l-1.288 2.08H19.4l-1.272-2.08h-1.064l1.744 2.728L17 24.68h1z" fill="#FFF" fill-rule="nonzero"/></g></svg>
